X: 12893
T: Few Bob, The
R: hornpipe
M: 4/4
K: Gmajor
DGA|:B3G EFGA|BGGF G2gf|effe dBAG|EAAG A2GA|
B3G EFGA|BGBd effe|dcBA Gd c/B/A|1 GEED E2GA:|2 GEED E2 ef||
g3e defg|addc d2ef|gage dega|baag a2ga|
b2gb a2gf|edef g2fe|dcBA Gd c/B/A|GEED E2 ef:|

